PortableApps/LibreOfficePortable/App/libreoffice/help/media/icon-themes/cmd/lc_insertrowsbefore.svg

<svg viewBox="0 0 24 24" xmlns="http://www.w3.org/2000/svg"><path d="m3 4v3h18v-3zm0 6v11h11.003906c.000015-.009335-.002084-.017981-.001953-.027344l.003906-4.138672-1.55664 1.556641c-.408182.42597-.942582.653497-1.53711.623047-.53727-.027506-.9994411-.274024-1.3203121-.595703-.321681-.322493-.5628738-.787284-.5898438-1.316407-.029522-.579295.1977209-1.099358.6074219-1.505859l-.0097656-.009765c1.3510396-1.356033 3.8646946-3.868871 4.9160156-4.917969l.003906-.003907.001953-.001953c.409904-.402187.961894-.6691586 1.541016-.658203.579122.010957 1.116194.303909 1.482422.714844.775539.768796 2.207381 2.206339 3.455078 3.457031v-4.175781zm15.001953 6.828125-.003906 4.144531c.00013.009366-.001967.018006-.001953.027344h3.003906v-2.015625c-.512332.001772-1.029003-.173114-1.429688-.583984z" fill="#fff"/><path d="m22.000103 16.97608c.0118.431173-.263693.800553-.609409.947402s-.802293.08821-1.103576-.220735l-3.283187-3.29173-.0059 6.575165c.0041.294233-.12096.580072-.318376.757921-.197417.177849-.44202.255896-.679725.255896s-.482309-.07805-.679726-.255896c-.197416-.177849-.322496-.463688-.318376-.757921l.0059-6.571258-3.279789 3.284007c-.204519.213432-.497094.330105-.763714.316451-.26662-.01365-.495796-.13405-.664099-.302777-.168303-.168728-.285275-.39593-.298845-.662206-.01357-.266275.101552-.558718.31447-.763781l-.0078.0059c1.349362-1.354348 3.864437-3.869061 4.914642-4.917046.5239-.514037 1.141229-.480336 1.576259.0078 1.065871 1.055988 3.668076 3.66973 4.900414 4.905246.185168.181347.293605.428604.300796.687562z" fill="#4d82b8"/><path d="m2 9v1 11c0 .554.446 1 1 1h11.269531c-.171687-.299862-.266205-.637648-.265625-1h-5.003906v-3h.28125c-.1534065-.262655-.2623187-.565344-.2792969-.898438-.0017765-.034859.0057925-.067143.0058594-.101562h-.0078125v-3h2.185547c.371397-.371743.62258-.624512.998047-1h-3.183594v-3h6v.306641c.30475-.17921.644619-.291237 1-.296875v-.009766h5v3h-1.173828c.379117.37956.630371.631487.998047 1h.175781v.175781c.361018.361885.707377.706585 1 1v-5.175781-1zm1 1h5v3h-5zm0 4h5v3h-5zm0 4h5v3h-5zm19 .710938c-.073959.043123-.139377.099097-.21875.132812-.248711.105644-.513993.1397-.78125.140625v2.015625h-3.003906c.000526.362721-.094938.69987-.267578 1h3.271484c.554 0 1-.446 1-1z" fill="#808080"/><path d="m2 3v5h20v-5zm1 1h5v3h-5zm6 0h6v3h-6zm7 0h5v3h-5z" fill="#4d82b8"/></svg>

<svg viewBox="0 0 24 24" xmlns="http://www.w3.org/2000/svg">
  <path
     style="fill:#ffffff"
     d="M 3 4 L 3 7 L 21 7 L 21 4 L 3 4 z M 3 10 L 3 21 L 14.003906 21 C 14.003921 20.990665 14.001822 20.982019 14.001953 20.972656 L 14.005859 16.833984 L 12.449219 18.390625 C 12.041037 18.816595 11.506637 19.044122 10.912109 19.013672 C 10.374839 18.986166 9.9126679 18.739648 9.5917969 18.417969 C 9.2701159 18.095476 9.0289231 17.630685 9.0019531 17.101562 C 8.9724311 16.522267 9.199674 16.002204 9.609375 15.595703 L 9.5996094 15.585938 C 10.950649 14.229905 13.464304 11.717067 14.515625 10.667969 L 14.519531 10.664062 L 14.521484 10.662109 C 14.931388 10.259922 15.483378 9.9929504 16.0625 10.003906 C 16.641622 10.014863 17.178694 10.307815 17.544922 10.71875 C 18.320461 11.487546 19.752303 12.925089 21 14.175781 L 21 10 L 3 10 z M 18.001953 16.828125 L 17.998047 20.972656 C 17.998177 20.982022 17.99608 20.990662 17.996094 21 L 21 21 L 21 18.984375 C 20.487668 18.986147 19.970997 18.811261 19.570312 18.400391 L 18.001953 16.828125 z "
     />
  <path
     style="fill:#4d82b8"
     d="m 22.000103,16.97608 c 0.0118,0.431173 -0.263693,0.800553 -0.609409,0.947402 -0.345716,0.146849 -0.802293,0.08821 -1.103576,-0.220735 l -3.283187,-3.29173 -0.0059,6.575165 c 0.0041,0.294233 -0.12096,0.580072 -0.318376,0.757921 -0.197417,0.177849 -0.44202,0.255896 -0.679725,0.255896 -0.237705,0 -0.482309,-0.07805 -0.679726,-0.255896 -0.197416,-0.177849 -0.322496,-0.463688 -0.318376,-0.757921 l 0.0059,-6.571258 -3.279789,3.284007 c -0.204519,0.213432 -0.497094,0.330105 -0.763714,0.316451 -0.26662,-0.01365 -0.495796,-0.13405 -0.664099,-0.302777 -0.168303,-0.168728 -0.285275,-0.39593 -0.298845,-0.662206 -0.01357,-0.266275 0.101552,-0.558718 0.31447,-0.763781 l -0.0078,0.0059 c 1.349362,-1.354348 3.864437,-3.869061 4.914642,-4.917046 0.5239,-0.514037 1.141229,-0.480336 1.576259,0.0078 1.065871,1.055988 3.668076,3.66973 4.900414,4.905246 0.185168,0.181347 0.293605,0.428604 0.300796,0.687562 z"
     />
  <path
     style="fill:#808080"
     d="M 2 9 L 2 10 L 2 21 C 2 21.554 2.446 22 3 22 L 14.269531 22 C 14.097844 21.700138 14.003326 21.362352 14.003906 21 L 9 21 L 9 18 L 9.28125 18 C 9.1278435 17.737345 9.0189313 17.434656 9.0019531 17.101562 C 9.0001766 17.066703 9.0077456 17.034419 9.0078125 17 L 9 17 L 9 14 L 11.185547 14 C 11.556944 13.628257 11.808127 13.375488 12.183594 13 L 9 13 L 9 10 L 15 10 L 15 10.306641 C 15.30475 10.127431 15.644619 10.015404 16 10.009766 L 16 10 L 21 10 L 21 13 L 19.826172 13 C 20.205289 13.37956 20.456543 13.631487 20.824219 14 L 21 14 L 21 14.175781 C 21.361018 14.537666 21.707377 14.882366 22 15.175781 L 22 10 L 22 9 L 2 9 z M 3 10 L 8 10 L 8 13 L 3 13 L 3 10 z M 3 14 L 8 14 L 8 17 L 3 17 L 3 14 z M 3 18 L 8 18 L 8 21 L 3 21 L 3 18 z M 22 18.710938 C 21.926041 18.754061 21.860623 18.810035 21.78125 18.84375 C 21.532539 18.949394 21.267257 18.98345 21 18.984375 L 21 21 L 17.996094 21 C 17.99662 21.362721 17.901156 21.69987 17.728516 22 L 21 22 C 21.554 22 22 21.554 22 21 L 22 18.710938 z "
     />
  <path
     style="fill:#4d82b8"
     d="M 2,3 V 8 H 22 V 3 Z M 3,4 H 8 V 7 H 3 Z m 6,0 h 6 V 7 H 9 Z m 7,0 h 5 v 3 h -5 z" />
</svg>
